img/avatar-3.svg

<svg xmlns="http://www.w3.org/2000/svg" preserveAspectRatio="xMidYMid" width="33.625" height="33.625"><circle cx="16.813" cy="16.813" r="16.813" fill="#7a60fd"/><path d="M22.361 14.707c0 .244-.35.451-.807.504v.012h-9.616v-.003c-.519-.019-.929-.241-.929-.513 0-.156.147-.303.372-.4a.224.224 0 0 1-.028-.109.4.4 0 0 1 .131-.294 5.581 5.581 0 0 1-.131-1.164c0-3.03 2.414-5.488 5.391-5.488 2.984 0 5.398 2.458 5.398 5.488 0 .438-.062.863-.15 1.273a.405.405 0 0 1 .204.35c0 .022-.013.041-.013.053.11.082.178.179.178.291zm-5.61-6.004c2.961 2.032 3.381 4.419 3.381 4.419.706-4.813-3.381-4.419-3.381-4.419zm4.666 7.88l-4.916 11.861-4.435-11.883-.066-.222h9.495l-.078.244z" fill="#fff" fill-rule="evenodd"/></svg>

<svg xmlns="http://www.w3.org/2000/svg" xmlns:xlink="http://www.w3.org/1999/xlink" preserveAspectRatio="xMidYMid" width="33.625" height="33.625" viewBox="0 0 33.625 33.625">
  <defs>
    <style>
      .cls-1 {
        fill: #7a60fd;
      }

      .cls-2 {
        fill: #fff;
        fill-rule: evenodd;
      }
    </style>
  </defs>
  <g>
    <circle cx="16.813" cy="16.813" r="16.813" class="cls-1"/>
    <path d="M22.361,14.707 C22.361,14.951 22.011,15.158 21.554,15.211 C21.554,15.214 21.554,15.220 21.554,15.223 L21.364,15.223 L12.000,15.223 L11.938,15.223 L11.938,15.220 C11.419,15.201 11.009,14.979 11.009,14.707 C11.009,14.551 11.156,14.404 11.381,14.307 C11.362,14.273 11.353,14.235 11.353,14.198 C11.353,14.076 11.409,13.973 11.484,13.904 C11.403,13.522 11.353,13.137 11.353,12.740 C11.353,9.710 13.767,7.252 16.744,7.252 C19.728,7.252 22.142,9.710 22.142,12.740 C22.142,13.178 22.080,13.603 21.992,14.013 C22.105,14.076 22.196,14.207 22.196,14.363 C22.196,14.385 22.183,14.404 22.183,14.416 C22.293,14.498 22.361,14.595 22.361,14.707 ZM16.751,8.703 C19.712,10.735 20.132,13.122 20.132,13.122 C20.838,8.309 16.751,8.703 16.751,8.703 ZM21.417,16.583 L16.501,28.444 L12.066,16.561 L12.000,16.339 L21.495,16.339 L21.417,16.583 Z" class="cls-2"/>
  </g>
</svg>
